X:1
T:Glory to God
T:Glory to God
T:William Rosborough
T:William Rosborough, 1895
T:Public Domain Courtesy of the Cyber Hymnal™
C:William Rosborough
Z:Public Domain
Z:Courtesy of the Cyber Hymnal™
%%score 1 ( 2 3 )
L:1/8
Q:1/4=130
M:3/4
K:D
V:1 treble 
V:2 bass 
V:3 bass 
V:1
"^Duet" F2 | (D2 E2) F2 | G4 G2 | F4 F2 | E4 E2 | (E2 G2) F2 | F4 E2 | (E2 F2) E2 | D4 z2 | %9
w: 1.~’Twas|on * a|clear and|peace- ful|night, And|shep- * herds|watched their|flock * by|night,|
w: 2.~’Twas|in * a|man- ger|He was|found; The|wise * men|came with|joy * pro-|found;|
w: 3.~In|Beth- * le-|hem this|Prince of|Peace Then|to * the|cap- tives|gave * re-|lease,|
 D2 D2 D2 | C4 C2 | D4 E2 | F4 F2 | (F2 A2) A2 | !fermata!G4 (GE) x2 | D4 C2 | D4 z2 || %17
w: That an- gels|came and|sang the|song, “For|un- * to|you a *|Sav- ior’s|born.”|
w: The morn- ing|star shone|bright- ly|there O’er|Heav- * en’s|Babe, the *|fair- est|fair.|
w: A might- y|prince en-|throned a-|bove, Rules|na- * tions|with His *|won- drous|love.|
"^Refrain" [DF]2 [DF]2 [GB]2 | [FA]4 z2 | [FA]2 [Fd]2 [Ge]2 | [Af]4 z2 | [GA]2 [Gc]2 [Gd]2 | %22
w: |||||
w: Glo- ry to|God!|glo- ry to|God!|Glo- ry to|
w: |||||
 [Ge]2 [Af]2 [Ge]2 | [Fd]6 | [FA]6 | [FA]2 [FA]2 [FA]2 | [FA]4 [A=c]2 | [GB]2 [GB]2 [GB]2 | %28
w: ||||||
w: God in the|high-|est!|An- gels and|men now|join in the|
w: ||||||
 [GB]4 [GB]2 | [FA]2 [Fd] z2 [Ae] | [Af]4 [Fd]2 |"^riten." [Ec]2 [Fd]2 [Ge]2 | [Fd]4 |] %33
w: |||||
w: song, Ho-|san- na! To|us a|Sav- ior is|born.|
w: |||||
V:2
 A,2 | (F,2 G,2) A,2 | [G,,B,]4 [A,,C]2 | [D,,D]4 [F,,A,]2 | B,4 C2 | C4 D2 | (D2 A,2) A,2 | %7
 (G,2 A,2) G,2 | [D,,F,]4 z2 | F,2 B,2 B,2 | ^A,4 A,2 | [B,,B,]4 [A,,C]2 | D4 D2 | %13
 ([D,,D]2 [E,,^C]2) [F,,=C]2 | !fermata!B,4 x4 | (F,2 A,2) G,2 | [D,,F,]4 z2 || %17
 [D,A,]2 [D,A,]2 [D,D]2 | [D,D]4 z2 | [D,D]2 [D,A,]2 [D,A,]2 | [D,D]4 z2 | [A,C]2 [A,E]2 [A,D]2 | %22
 [A,C]2 [A,C]2 [A,C]2 | [D,A,]6 | [D,D]6 | [D,D]2 [D,D]2 [D,D]2 | [D,D]4 [F,D]2 | %27
 [G,D]2 [G,D]2 [G,D]2 | [G,D]4 [G,D]2 | [D,D]2 [D,A,] z2 [A,C] | [D,D]4 [D,A,]2 | %31
 [A,,A,]2 [A,,A,]2 [A,,A,]2 | [D,A,]4 |] %33
V:3
 x2 | D,,6 | x6 | x6 | A,,6 | A,,6 | D,,6 | A,,6 | x6 | B,,6 | F,,6 | x6 | D,,6 | x6 | %14
 G,,6 (B,G,) | A,,6 | x6 || x6 | x6 | x6 | x6 | x6 | x6 | x6 | x6 | x6 | x6 | x6 | x6 | x6 | x6 | %31
 x6 | x4 |] %33

